X: 1
T: String Quartet in F Major opus 74 no 2 mvt 2
C: Franz Joseph Haydn
%%abc-version 2.0
%%abcx-abcm2ps-target-version 5.9.1 (29 Sep 2008)
%%abc-creator hum2abc beta
%%abcx-conversion-date 2021/02/14 14:38:25
%%abc-copyright Copyright (c) 1994, 2000 Center for Computer Assisted Research in the Humanities
%%abc-edited-by Frances Bennion
%%abcx-initial-encoding-date 1997/04/15
%%gracespace 0 6 6
%%humdrum-veritas 704084731
%%humdrum-veritas-data 3146207141
%%linebreak <none>
%%barnumbers 0
L: 1/16
M: 2/4
N: Derived from op74n2-02.krn
Q: "Andante grazioso"
%%staves [1 2 3 4]
V: 1
V: 2
V: 3 clef=alto
V: 4 clef=bass
K: Bb
[V:1]f2>>e2 d2d2 [I:setbarnb2]|
[V:2]d2>>c2 B2B2 |
[V:3]B,2D2 ^F2G2 |
[V:4]z8 |
[V:1]d2e2 c4 |
[V:2]B2c2 A4 |
[V:3]E6 F2 |
[V:4]z8 |
[V:1]B2=B2 c>de3/g/ |
[V:2]B2_A2 G7/e/ |
[V:3]D4 E2C2 |
[V:4]z8 |
[V:1]d4 cde=e |
[V:2]B4 A2z2 |
[V:3]F4 F,2z2 |
[V:4]z8 |
[V:1]f2>>e2 d2d2 |
[V:2]d2>>c2 B2B2 |
[V:3]z8 |
[V:4]B,,2D,2 ^F,2G,2 |
[V:1]g2>>f2 =e2e2 |
[V:2]B2>>A2 G2G2 |
[V:3]z4 z2B2 |
[V:4]=E,2G,2 B,2^C2 |
[V:1]f2=B2 c2=E2 |
[V:2]F2_A2 =A2G2 |
[V:3]A2F4 B,2 |
[V:4]D2_D2 C2C,2 |
[V:1]G4 F2z2 |
[V:2]=E4 F2z2 |
[V:3]B,4 A,2z2 |
[V:4]F,2C,2 F,,2z2 |
[V:1]G2_AG G2G2 |
[V:2]D2>>E2 F2F2 |
[V:3]=B,2>>C2 D2D2 |
[V:4]z8 |
[V:1]G2=B2 c2c2 |
[V:2]F4 E4 |
[V:3]D4 C4 |
[V:4]C,2>>D,2 E,2E,2 |
[V:1]d2>>e2 f2=B2 |
[V:2]_A2G2 F2F2 |
[V:3]C6 D2 |
[V:4]F,2G,2 _A,2G,2 |
[V:1]d4 c2d2 |
[V:2]F4 E2=B2 |
[V:3]=B,4 C2_A2 |
[V:4]C,2G,,2 C,,2F2 |
[V:1]e2>>f2 g2c2 |
[V:2]c2>>d2 e2A2 |
[V:3]G2F2 E2_G2 |
[V:4]E2D2 C2E2 |
[V:1]d2>>e2 f2b2 |
[V:2]B2>>c2 d2B,2 |
[V:3]F2E2 D2F,2 |
[V:4]D2C2 B,2D,2 |
[V:1]C2DC C2C2 |
[V:2]B,8- |
[V:3]G,8 |
[V:4]E,4 =E,4 |
[V:1](3:2:2C4-C/DE =E|
[V:2]B,2^G,2 A,2z2 |
[V:3]F,4 z4 |
[V:4]F,4 z4 |
[V:1]F4 z4 |
[V:2]F2>>E2 D2D2 |
[V:3]D2>>C2 B,2B,2 |
[V:4]B,,2D,2 ^F,2G,2 |
[V:1]z8 |
[V:2]D2E2 C4 |
[V:3]B,2C2 A,4 |
[V:4]E,6 F,2 |
[V:1]f2>>e2 d2d2 |
[V:2]d2>>c2 B2B2 |
[V:3]B,2D2 ^F2G2 |
[V:4]D,4 z4 |
[V:1]d2e2 c4 |
[V:2]B2c2 A4 |
[V:3]E6 F2 |
[V:4]z8 |
[V:1]B2=B2 c>de3/g/ |
[V:2]B2_A2 G7/e/ |
[V:3]D4 E2C2 |
[V:4]z8 |
[V:1]d4 c=Bcd |
[V:2]B4 A2z2 |
[V:3]F4 F,2z2 |
[V:4]z8 |
[V:1]e2>>d2 c2c2 |
[V:2]c2>>B2 A2A2 |
[V:3]F,8 |
[V:4]A,2C2 =E2F2 |
[V:1]g2>>f2 e2e2 |
[V:2]e2>>d2 c2c2 |
[V:3]C,2E,2 ^F,2A,2 |
[V:4]A,,2C,2 E,2^F,2 |
[V:1]d2=e2 f2A2 |
[V:2]B6 A2 |
[V:3]B,2_D2 =D2E2 |
[V:4]G,2_G,2 F,4 |
[V:1]c4 B2z2 |
[V:2]A4 B2z2 |
[V:3]E4 D2z2 |
[V:4]B,,2F,2 B,2z2 |
[V:1]z8 |
[V:2]z8 |
[V:3]D2>>C2 B,2B,2 |
[V:4]F2>>E2 D2D2 |
[V:1]z4 A/B/A/B/A/c/e/A/ |
[V:2]z8 |
[V:3]B,2C2 F,4 |
[V:4]D2E2 C4 |
[V:1]Bb2_a g>fe3/c/ |
[V:2]z8 |
[V:3]D,4 E,4 |
[V:4]B,2=B,2 C>DE3/G/ |
[V:1]B4 A2z2 |
[V:2]z8 |
[V:3]F,2F2 F,2z2 |
[V:4]D4 CDE=E |
[V:1]B/A/c/B/d/c/e/d/ f2f2 |
[V:2]z8 |
[V:3]D2>>C2 B,2B,2 |
[V:4]F2>>E2 D2D2 |
[V:1]f/=e/g/f/a/g/b/a/ c'bbb |
[V:2]z8 |
[V:3]B2>>A2 G2C2 |
[V:4]G2>>F2 =E2E2 |
[V:1]baz_a zfz=e |
[V:2]z2zf z_AzG |
[V:3]F,2_D,2 C,2C,2 |
[V:4]F2=B,2 C2=E2 |
[V:1]=e4 f2z2 |
[V:2]B4 A2z2 |
[V:3]F,2C,2 F,2z2 |
[V:4]G4 F2z2 |
[V:1]z8 |
[V:2]D2>>E2 F2F2 |
[V:3]=B,2>>C2 D2D2 |
[V:4]G,2_A,G, G,2G,2 |
[V:1]z8 |
[V:2]F2_AG G2C2 |
[V:3]C,2>>D,2 E,2E,2 |
[V:4]G,2=B,2 C2C2 |
[V:1]z8 |
[V:2]C6 D2 |
[V:3]F,2G,2 _A,2G,2 |
[V:4]D2E2 F2=B,2 |
[V:1]z4 z2_a2 |
[V:2]=B,4 C2f2 |
[V:3]C,2G,2 C2=B,2 |
[V:4]D4 C2D2 |
[V:1]g2f2 e2g2 |
[V:2]e2d2 c2e2 |
[V:3]C2>>D2 E2A,2 |
[V:4]E2>>F2 G2C2 |
[V:1]f2e2 d2b2 |
[V:2]d2c2 B2F2 |
[V:3]B,2>>C2 D2D2 |
[V:4]D2>>E2 F2B,2 |
[V:1]b8- |
[V:2]G8 |
[V:3]E6 =E2 |
[V:4]C2DC C2C2 |
[V:1]bagf =ef_ec |
[V:2]F4 z4 |
[V:3]F4 z4 |
[V:4]C4 z4 |
[V:1]B4 z4 |
[V:2]B,/A,/C/B,/D/C/E/D/ F2F2 |
[V:3]F,2>>E,2 D,2D,2 |
[V:4]D,2>>C,2 B,,2B,,2 |
[V:1]z8 |
[V:2]F=E_EE ECCA, |
[V:3]D,2E,2 C,4 |
[V:4]B,,2C,2 F,,4 |
[V:1]B/A/c/B/d/c/e/d/ f2f2 |
[V:2]B,4 z4 |
[V:3]D2>>C2 B,2B,2 |
[V:4]F2>>E2 D2D2 |
[V:1]f=e_ee eccA |
[V:2]z8 |
[V:3]B,2C2 F,4 |
[V:4]D2E2 C4 |
[V:1]Bf2_a g>fe3/c/ |
[V:2]z8 |
[V:3]B,2D,2 E,2E,2 |
[V:4]B,2=B,2 C>DE3/G/ |
[V:1]B4 A^GAB |
[V:2]z8 |
[V:3]F,2F2 F,2z2 |
[V:4]D4 C=B,CD |
[V:1]A/B/c/B/A/B/c/d/ eeee |
[V:2]C2>>B,2 A,2A,2 |
[V:3]F,8 |
[V:4]E2>>D2 C2C2 |
[V:1]e/d/c/=B/c/d/e/f/ g/f/e/d/e/f/g/a/ |
[V:2]E2>>D2 C2C2 |
[V:3]F,8 |
[V:4]G2>>F2 E2E2 |
[V:1]b2_d2 =d2(3ecA |
[V:2]B,6 A,A |
[V:3]G,2_G,2 F,4 |
[V:4]D2=E2 F2C2 |
[V:1]c4 B2z2 |
[V:2]A4 B2z2 |
[V:3]B,2F,2 B,2z2 |
[V:4]E4 D2z2 |
[V:1]F8 |
[V:2]f2>>_d2 B2b2 |
[V:3]_D8 |
[V:4]B,,2_D,2 F,2D,2 |
[V:1]_G8- |
[V:2]b3_g/e/ B2b2 |
[V:3]E8- |
[V:4]B,,2E,2 _G,2E,2 |
[V:1]G8- |
[V:2]a2>>c'2 e'2a2 |
[V:3]E8- |
[V:4]B,,2E,2 _G,2E,2 |
[V:1]G4 F4 |
[V:2]c'4 babc' |
[V:3]E4 _D4 |
[V:4]B,,2A,2 B,2F,2 |
[V:1]F4 _G4- |
[V:2]_d'2>>b2 _g2g2 |
[V:3]_D8 |
[V:4]B,,2F,2 B,2B,,2 |
[V:1]G2_A,4 _D2- |
[V:2]_g2>>_A2 f7/A/ |
[V:3]_A,2E2 F4 |
[V:4]_C,2=C,2 _D,2F,2 |
[V:1]D2_F2 E2_G2 |
[V:2]B2B2 c2Bc |
[V:3]E2_D2 _G2E2 |
[V:4]_G,2=G,2 _A,2A,2 |
[V:1]_G4 F2z2 |
[V:2]e4 _d2z2 |
[V:3]C4 _D2z2 |
[V:4]_D,2_A,,2 _D,,2z2 |
[V:1]F8 |
[V:2]d2>>f2 _a2_g/f/e/d/ |
[V:3]_A,8 |
[V:4]B,,2D,2 F,2B,2 |
[V:1]E6 _G2 |
[V:2]e2e>f _g2B2 |
[V:3]_G,6 E2- |
[V:4]B,,2_G,2 E,2z2 |
[V:1]_G2F2 F7/B/ |
[V:2]A2B2 c>_de3/d/ |
[V:3]E2_D2 A,2B,2 |
[V:4]z8 |
[V:1]B4 A2z2 |
[V:2]_d4 c2z2 |
[V:3]F,2F2 F,2F,2 |
[V:4]z8 |
[V:1]F8 |
[V:2]f2>>_d2 B2b2 |
[V:3]B,8- |
[V:4]_D,2F,2 B,2D,2 |
[V:1]_G8 |
[V:2]b2>>_g2 e2e2 |
[V:3]B,4 _C4- |
[V:4]E,2_G,2 _C2E,2 |
[V:1]_A4 _G4 |
[V:2]d3f/e/ e3_g |
[V:3]C4 B,4 |
[V:4]F,4 _G,4 |
[V:1]_G4 F4 |
[V:2]A3c/B/ B2_d2 |
[V:3]E4 _D4 |
[V:4]z4 z2B,,2 |
[V:1]_G2G2 E2E2 |
[V:2]c2c2 A2GA |
[V:3]E2E2 C2C2 |
[V:4]E,2E,2 F,2F,2 |
[V:1]E4 _D2z2 |
[V:2]c4 B2z2 |
[V:3]C4 B,2z2 |
[V:4]B,,2F,2 B,2z2 |
[V:1]f2>>e2 d2d2 |
[V:2]d2>>c2 B2B2 |
[V:3]=B,2D2 ^F2G2 |
[V:4]z8 |
[V:1]d2e2 c4 |
[V:2]B2c2 A4 |
[V:3]E6 F2 |
[V:4]z8 |
[V:1]B2=B2 c>de3/g/ |
[V:2]B2_A2 G7/e/ |
[V:3]D4 E2C2 |
[V:4]z8 |
[V:1]d4 cde=e |
[V:2]B4 A2z2 |
[V:3]F4 F,2z2 |
[V:4]z8 |
[V:1]f2>>e2 d2d2 |
[V:2]d2>>c2 B2B2 |
[V:3]z8 |
[V:4]B,,2D,2 ^F,2G,2 |
[V:1]g2>>f2 =e2e2 |
[V:2]B2>>A2 G2G2 |
[V:3]z4 z2B2 |
[V:4]=E,2G,2 B,2^C2 |
[V:1]f2=B2 c2=E2 |
[V:2]F2_A2 =A2G2 |
[V:3]A2F4 B,2 |
[V:4]D2_D2 C2C,2 |
[V:1]G4 F2z2 |
[V:2]=E4 F2z2 |
[V:3]B,4 A,2z2 |
[V:4]F,2C,2 F,,2z2 |
[V:1]f2>>e2 d2d2 |
[V:2]d2>>c2 B2B2 |
[V:3](3B,DC(3B,DE (3FA^F(3GFG |
[V:4]z8 |
[V:1]d2e2 c4 |
[V:2]B2c2 A4 |
[V:3](3CED(3CDE (3F=EG(3F_EC |
[V:4]z8 |
[V:1]B2=B2 c>de3/g/ |
[V:2]B2F2 G7/c/ |
[V:3](3DFE(3D_AD (3EC=B,(3CDE |
[V:4]z8 |
[V:1]d4 cde=e |
[V:2]B4 A2z2 |
[V:3](3F=EF(3F,G,=E, (3F,EF(3_EDC |
[V:4]z8 |
[V:1]f2>>e2 d2d2 |
[V:2]d2>>c2 B2B2 |
[V:3](3B,DE(3=EF^F (3GFG(3G,A,F, |
[V:4]z8 |
[V:1]g2>>f2 =e2e2 |
[V:2]B2>>A2 G2G2 |
[V:3](3=E,F,G,(3A,B,=B, (3CC,C(3^C^C,C |
[V:4]z8 |
[V:1]f2=B2 c2=E2 |
[V:2]F2D2 C2G,2 |
[V:3](3DFG(3_AGF (3=AFC(3B,G,C, |
[V:4]z8 |
[V:1]G4 F2z2 |
[V:2]B,4 A,2z2 |
[V:3](3F,C=B,(3CD=E F2z2 |
[V:4]z8 |
[V:1]G2_AG G2G2 |
[V:2]D2>>E2 F2F2 |
[V:3]=B,2>>C2 D2D2 |
[V:4](3^F,,G,,G,,(3G,,G,,G,, (3G,,=B,,D,(3G,A,=B, |
[V:1]G2=B2 c2c2 |
[V:2]F4 E4 |
[V:3]D4 C4 |
[V:4](3CC,=B,,(3C,E,D, (3E,G,=B,(3CG,E, |
[V:1]d2>>e2 f2=B2 |
[V:2]_A2G2 F2F2 |
[V:3]C6 D2 |
[V:4](3F,CF,(3G,CG, (3_A,_A,,A,(3G,,G,G,, |
[V:1]d4 c2d2 |
[V:2]F4 E2=B2 |
[V:3]=B,4 G,2_A2 |
[V:4](3C,,G,,^F,,(3G,,A,,=B,, C,2F2 |
[V:1](3dee(3eff (3fgf(3edc |
[V:2](3=Bcc(3cdd (3ded(3c_BA |
[V:3]G2F2 E2_G2 |
[V:4]E2D2 C2E2 |
[V:1](3cdd(3dee (3eff(3fbb |
[V:2](3ABB(3Bcc (3cdd(3dB,B, |
[V:3]F2E2 D2F,2 |
[V:4]D2C2 B,2D,2 |
[V:1](3bC=B,(3CB,C (3_DCC(3B,CC |
[V:2]B,8- |
[V:3]G,8 |
[V:4]E,4 =E,4 |
[V:1](3C=EG(3BGE F2z2 |
[V:2]B,2G,2 (3A,A,B,(3CDE |
[V:3]F,4 z4 |
[V:4]F,4 z4 |
[V:1]z8 |
[V:2]F2>>E2 D2D2 |
[V:3]D2>>C2 B,2B,2 |
[V:4](3B,,D,E,(3=E,F,^F, (3G,A,F,(3G,F,G, |
[V:1]z8 |
[V:2]D2E2 C4 |
[V:3]B,2C2 A,4 |
[V:4](3C,E,D,(3C,D,E, (3F,=E,G,(3F,_E,C, |
[V:1]f2>>e2 d2d2 |
[V:2]d2>>c2 B2B2 |
[V:3](3B,DE(3=EF^F (3GAF(3GFG |
[V:4]B,,4 z4 |
[V:1]d2e2 c4 |
[V:2]B2c2 A4 |
[V:3](3CED(3CDE (3F=EG(3F_EC |
[V:4]z8 |
[V:1]B2=B2 c>de3/g/ |
[V:2]B2_A2 G7/e/ |
[V:3](3DFE(3DFD (3EC=B,(3CDE |
[V:4]z8 |
[V:1]d4 (3cAB(3=Bcd |
[V:2]B4 A2z2 |
[V:3](3F=EF(3F,G,=E, F,2z2 |
[V:4]z8 |
[V:1]e2>>d2 c2c2 |
[V:2]c2>>B2 A2A2 |
[V:3]A,4 z4 |
[V:4](3F,,A,,B,,(3C,D,=E, (3F,E,F,(3F,,F,F,, |
[V:1]g2>>f2 e2e2 |
[V:2]e2>>d2 c2c2 |
[V:3](3A,CD(3EFG (3A^GA(3A,AA, |
[V:4](3F,,A,,B,,(3C,D,=E, (3F,E,F,(3F,,F,F,, |
[V:1]d2=e2 f2A2 |
[V:2]B6 E2 |
[V:3]B,2_D2 =D2C2 |
[V:4](3G,,G,G,(3_G,_G,,G,, (3F,,F,F,(3F,,F,F, |
[V:1]B4 z4 |
[V:2]D4 z4 |
[V:3](3B,B,B,(3B,B,B, (3B,B,B,(3B,B,B, |
[V:4]B,,4 z4 |
[V:1]b2>>a2 g2g2 |
[V:2]g2>>f2 e2e2 |
[V:3](3B,ED(3EGA (3BBB(3BBB |
[V:4]z8 |
[V:1]f2>>e2 d2d2 |
[V:2]d2>>c2 B2B2 |
[V:3](3B,DE(3FGA (3BFD(3B,F,D, |
[V:4]z8 |
[V:1](3cge(3dcB (3AGF(3EDC |
[V:2]G2z2 [E2C2]z2 |
[V:3]E,2z2 F,2z2 |
[V:4]z8 |
[V:1](3B,bb(3bbb (3bbb(3bbb |
[V:2][D4B,4] z4 |
[V:3]B,4 z4 |
[V:4]z8 |
[V:1](3bbb(3bbb (3bbb(3bbb |
[V:2]g2>>f2 e2e2 |
[V:3]B2>>A2 G2G2 |
[V:4](3B,,E,D,(3E,G,A, (3B,B,B,(3B,B,B, |
[V:1](3bbb(3bbb (3bbb(3bbb |
[V:2]d2>>c2 B2B2 |
[V:3]F2>>E2 D2D2 |
[V:4](3B,,D,E,(3F,G,A, (3B,F,D,(3B,,F,,D,, |
[V:1](3bge(3dcB (3AGF(3EDC |
[V:2]c2z2 E2z2 |
[V:3]G2z2 C2z2 |
[V:4]E,,2z2 F,,2z2 |
[V:1](3B,B,B,(3EEE (3DDD(3EEE |
[V:2](3DDD(3A,A,A, (3B,B,B,(3A,A,A, |
[V:3](3F,F,F,(3_G,G,G, (3F,F,F,(3G,G,G, |
[V:4](3B,,B,,B,,(3B,,B,,B,, (3B,,B,,B,,(3B,,B,,B,, |
[V:1]Dz(3EEE (3DDD(3EEE |
[V:2]B,z(3A,A,A, (3B,B,B,(3A,A,A, |
[V:3]F,z(3_G,G,G, (3F,F,F,(3G,G,G, |
[V:4]B,,z(3B,,B,,B,, (3B,,B,,B,,(3B,,B,,B,, |
[V:1]D2z2 D2z3/D/ |
[V:2]B,2z2 B,2z3/B,/ |
[V:3]F,2z2 F,2z3/F,/ |
[V:4]B,,2z2 B,,2z3/B,,/ |
[V:1]D4 z4 |]
[V:2]B,4 z4 |]
[V:3]F,4 z4 |]
[V:4]B,,4 z4 |]

